assets/sonr-icons/usdc.svg

<svg xmlns="http://www.w3.org/2000/svg" width="24" height="24" fill="none" viewBox="0 0 24 24"><path fill="#000" d="M16.13 14.427C16.13 12.237 14.816 11.486 12.188 11.173C10.311 10.922 9.93502 10.422 9.93502 9.54598C9.93502 8.66998 10.56 8.10698 11.812 8.10698C12.939 8.10698 13.564 8.48298 13.877 9.42098C13.939 9.60898 14.127 9.73398 14.315 9.73398H15.316C15.566 9.73398 15.754 9.54598 15.754 9.29598V9.23398C15.504 7.85698 14.377 6.79398 12.938 6.66798V5.16598C12.938 4.91598 12.75 4.72798 12.438 4.66498H11.499C11.249 4.66498 11.061 4.85298 10.998 5.16598V6.60498C9.12102 6.85598 7.93202 8.10598 7.93202 9.67098C7.93202 11.736 9.18402 12.549 11.812 12.862C13.564 13.175 14.127 13.55 14.127 14.552C14.127 15.554 13.251 16.242 12.062 16.242C10.435 16.242 9.87202 15.553 9.68402 14.615C9.62202 14.364 9.43402 14.239 9.24602 14.239H8.18202C7.93202 14.239 7.74402 14.427 7.74402 14.677V14.739C7.99402 16.303 8.99602 17.43 11.061 17.743V19.245C11.061 19.496 11.249 19.683 11.561 19.745H12.5C12.751 19.745 12.938 19.557 13.001 19.245V17.743C14.878 17.43 16.13 16.116 16.13 14.427Z"/><path fill="#000" d="M8.80899 20.998C3.92799 19.246 1.42499 13.802 3.23999 8.98399C4.17899 6.35599 6.24399 4.35299 8.80899 3.41399C9.05899 3.28899 9.18499 3.10099 9.18499 2.78799V1.91199C9.18499 1.66099 9.05999 1.47399 8.80899 1.41199C8.74699 1.41199 8.62099 1.41199 8.55799 1.47399C2.61399 3.35099 -0.641014 9.67199 1.23699 15.616C2.36399 19.12 5.05399 21.811 8.55799 22.938C8.80899 23.063 9.05899 22.938 9.12099 22.688C9.18299 22.626 9.18299 22.563 9.18299 22.438V21.562C9.18299 21.374 8.99599 21.124 8.80799 20.999L8.80899 20.998ZM15.442 1.47499C15.192 1.34999 14.941 1.47499 14.879 1.72499C14.817 1.78699 14.817 1.84999 14.817 1.97499V2.85099C14.817 3.10099 15.005 3.35099 15.193 3.47599C20.074 5.22799 22.577 10.672 20.762 15.49C19.824 18.118 17.758 20.12 15.193 21.059C14.943 21.184 14.817 21.372 14.817 21.684V22.56C14.817 22.81 14.942 22.998 15.193 23.06C15.255 23.06 15.381 23.06 15.443 22.998C21.388 21.121 24.642 14.801 22.765 8.85599C21.639 5.28899 18.885 2.59899 15.443 1.47199L15.442 1.47299V1.47499Z"/></svg>

<svg xmlns="http://www.w3.org/2000/svg" width="24" height="24" fill="none"><path fill="currentColor" d="M16.13 14.427c0-2.19-1.314-2.941-3.942-3.254-1.877-.251-2.253-.751-2.253-1.627s.625-1.439 1.877-1.439c1.127 0 1.752.376 2.065 1.314a.47.47 0 0 0 .438.313h1.001c.25 0 .438-.188.438-.438v-.062a3.13 3.13 0 0 0-2.816-2.566V5.166c0-.25-.188-.438-.5-.501h-.939c-.25 0-.438.188-.501.501v1.439c-1.877.251-3.066 1.501-3.066 3.066 0 2.065 1.252 2.878 3.88 3.191 1.752.313 2.315.688 2.315 1.69s-.876 1.69-2.065 1.69c-1.627 0-2.19-.689-2.378-1.627-.062-.251-.25-.376-.438-.376H8.182a.43.43 0 0 0-.438.438v.062c.25 1.564 1.252 2.691 3.317 3.004v1.502c0 .251.188.438.5.5h.939c.251 0 .438-.188.501-.5v-1.502c1.877-.313 3.129-1.627 3.129-3.316"/><path fill="currentColor" d="M8.809 20.998C3.928 19.246 1.425 13.802 3.24 8.984c.939-2.628 3.004-4.631 5.569-5.57.25-.125.376-.313.376-.626v-.876c0-.251-.125-.438-.376-.5-.062 0-.188 0-.251.062C2.614 3.351-.641 9.672 1.237 15.616a11.26 11.26 0 0 0 7.321 7.322c.251.125.501 0 .563-.25.062-.062.062-.125.062-.25v-.876c0-.188-.187-.438-.375-.563zm6.633-19.523c-.25-.125-.501 0-.563.25-.062.062-.062.125-.062.25v.876c0 .25.188.5.376.625 4.881 1.752 7.384 7.196 5.569 12.014-.938 2.628-3.004 4.63-5.569 5.569-.25.125-.376.313-.376.625v.876c0 .25.125.438.376.5.062 0 .188 0 .25-.062 5.945-1.877 9.199-8.197 7.322-14.142a11.35 11.35 0 0 0-7.322-7.384l-.001.001z"/></svg>
